icons/1_Primary/Square Enix.svg

<svg xmlns="http://www.w3.org/2000/svg" width="1024" height="1024" fill="none">
   <g clip-path="url(#a)">
      <path fill="#FF837D" d="M512 1024c282.77 0 512-229.23 512-512S794.77 0 512 0 0 229.23 0 512s229.23 512 512 512Z"/>
      <path fill="#fff" d="M502.47 467h151.4v79.23h-151.4V467Zm-77.27-94h263.17v-72H331.73v422h360.54v-79.33H425.2V373Z"/>
   </g>
   <defs>
      <clipPath id="a">
         <path fill="#fff" d="M0 0h1024v1024H0z"/>
      </clipPath>
   </defs>
</svg>

<svg width="1024" height="1024" viewBox="0 0 1024 1024" fill="none" xmlns="http://www.w3.org/2000/svg">
<g clip-path="url(#clip0_2_3537)">
<path d="M512 1024C794.77 1024 1024 794.77 1024 512C1024 229.23 794.77 0 512 0C229.23 0 0 229.23 0 512C0 794.77 229.23 1024 512 1024Z" fill="#FF837D"/>
<path d="M502.47 467H653.87V546.23H502.47V467ZM425.2 373H688.37V301H331.73V723H692.27V643.67H425.2V373Z" fill="white"/>
</g>
<defs>
<clipPath id="clip0_2_3537">
<rect width="1024" height="1024" fill="white"/>
</clipPath>
</defs>
</svg>
